X:1
T: Billy the Barber Shaved His Fat:her -- Jig
R: jig
B:Ryan's Mammoth Collection
Z:Contributed by Ray Davies. ray:davies.freeserve.co.uk
M: 6/8
L: 1/8
K: G
uc|vBcA G2D|E2D G2c|BcA G2A|Bdd edc|
BcA G2D|E2D G2A|B2c A2c|BGG G2::
uA|vB2B BcA|B2d def|g2f e2d|dcB ABc|
B2B BcA|B2d def|g2e a2g|fdd d2:|
